Project/img/pinterest.svg

<svg xmlns="http://www.w3.org/2000/svg" xmlns:xlink="http://www.w3.org/1999/xlink" preserveAspectRatio="xMidYMid" width="12.25" height="16" viewBox="0 0 12.25 16">
  <defs>
    <style>
      .cls-1 {
        fill: #95e1d3;
        fill-rule: evenodd;
      }
    </style>
  </defs>
  <path d="M5.094,10.394 C4.963,10.915 4.832,11.460 4.696,11.994 C4.561,12.520 4.443,13.054 4.247,13.537 C3.923,14.338 3.510,15.112 2.970,15.738 C2.611,16.155 2.687,15.989 2.579,15.966 C2.496,15.949 2.489,15.869 2.473,15.751 C2.385,15.115 2.445,14.379 2.478,13.664 C2.515,12.849 2.686,12.171 2.845,11.494 C3.148,10.204 3.437,8.940 3.742,7.643 C3.763,7.556 3.817,7.413 3.799,7.364 C3.660,7.004 3.570,6.679 3.531,6.302 C3.485,5.866 3.520,5.461 3.618,5.087 C3.790,4.426 4.188,3.839 4.802,3.626 C5.191,3.490 5.623,3.551 5.885,3.708 C6.156,3.869 6.341,4.125 6.427,4.486 C6.520,4.871 6.452,5.331 6.378,5.669 C6.211,6.430 5.991,7.002 5.792,7.737 C5.693,8.102 5.581,8.476 5.674,8.869 C5.759,9.231 5.947,9.480 6.203,9.666 C6.469,9.859 6.784,9.966 7.219,9.951 C7.986,9.924 8.519,9.434 8.876,8.971 C9.446,8.230 9.791,7.231 9.923,6.042 C9.965,5.659 9.996,5.218 9.966,4.783 C9.912,3.981 9.660,3.336 9.262,2.835 C8.883,2.359 8.346,1.979 7.692,1.766 C7.044,1.554 6.147,1.484 5.350,1.621 C3.902,1.869 2.880,2.692 2.278,3.828 C1.963,4.423 1.755,5.108 1.755,5.959 C1.755,6.616 1.917,7.125 2.179,7.522 C2.262,7.647 2.384,7.751 2.465,7.895 C2.581,8.099 2.447,8.403 2.390,8.623 C2.322,8.888 2.314,9.256 2.004,9.262 C1.876,9.264 1.714,9.170 1.606,9.110 C0.790,8.659 0.295,7.839 0.092,6.776 C-0.032,6.130 -0.031,5.376 0.092,4.751 C0.211,4.147 0.432,3.591 0.677,3.138 C1.186,2.199 1.932,1.449 2.839,0.912 C3.537,0.500 4.324,0.210 5.281,0.071 C5.599,0.025 5.928,0.006 6.284,-0.012 C7.327,-0.061 8.275,0.176 8.988,0.495 C9.741,0.832 10.342,1.280 10.851,1.835 C11.374,2.408 11.755,3.073 11.997,3.904 C12.123,4.336 12.246,4.800 12.246,5.334 C12.246,5.869 12.132,6.342 12.053,6.814 C11.757,8.581 10.916,10.026 9.655,10.849 C9.349,11.049 8.978,11.233 8.558,11.355 C8.141,11.476 7.666,11.568 7.156,11.532 C6.662,11.498 6.257,11.364 5.917,11.172 C5.579,10.981 5.295,10.747 5.094,10.394 Z" class="cls-1"/>
</svg>

<svg xmlns="http://www.w3.org/2000/svg" width="12.25" height="16" preserveAspectRatio="xMidYMid"><defs><style>.cls-1 { fill: #95e1d3; fill-rule: evenodd; }</style></defs><path d="M5.1 10.4c-.14.5-.27 1.06-.4 1.6-.14.52-.26 1.05-.45 1.54-.33.8-.74 1.57-1.28 2.2-.36.42-.28.25-.4.23-.07-.02-.08-.1-.1-.22-.1-.63-.03-1.37 0-2.1.04-.8.22-1.48.38-2.16.3-1.3.6-2.56.9-3.86 0-.08.07-.23.05-.28-.14-.36-.23-.68-.27-1.06-.04-.43 0-.84.1-1.2.16-.67.56-1.26 1.17-1.47.4-.14.82-.08 1.08.08.28.17.46.42.55.8.1.37.02.83-.05 1.17-.17.76-.4 1.33-.6 2.07-.1.36-.2.74-.1 1.13.08.36.27.6.52.8.27.2.58.3 1.02.28.77-.03 1.3-.52 1.66-.98.57-.74.9-1.74 1.04-2.93.04-.38.08-.82.05-1.26-.06-.8-.3-1.44-.7-1.95-.4-.47-.92-.85-1.58-1.06-.66-.22-1.55-.3-2.35-.15-1.45.25-2.47 1.07-3.07 2.2-.32.6-.52 1.3-.52 2.14 0 .66.16 1.17.42 1.56.08.13.2.23.28.38.12.2 0 .5-.07.72-.08.27-.1.64-.4.64-.12 0-.3-.1-.4-.15C.8 8.67.3 7.85.1 6.8c-.13-.65-.13-1.4 0-2.03.1-.6.33-1.16.58-1.6.5-.95 1.25-1.7 2.16-2.24.7-.4 1.48-.7 2.44-.83.32-.05.65-.06 1-.08 1.05-.06 2 .18 2.7.5.76.33 1.36.78 1.87 1.33.52.58.9 1.24 1.15 2.07.12.44.25.9.25 1.43 0 .54-.12 1-.2 1.48-.3 1.78-1.13 3.23-2.4 4.05-.3.2-.67.38-1.1.5-.4.13-.88.22-1.4.18-.5-.03-.9-.17-1.23-.36-.34-.2-.63-.42-.83-.78z" class="cls-1"/></svg>
